X: 1716
T: Miss Drummond Of Perth
B: australian traditional tunes wiki
M:C
L:1/8
R: Highland Schottische
Q: 1/4=100
K:D
V:1 
|:E2B>E (3FGA B>c|d2A>d B>d (3AFD |E2B>E (3FGA B>c|d2A>F F<EE2:|
|:e2d>e d>e B>c|d2A>d B>d (3AFD|e2d<e d<e B<c|(3dcB A>F F<EE2:|
% abcbook-tune_id 6342d53a5233899b91a2481e


% abcbook-boost 0
% abcbook-tablature 
% abcbook-transpose 
% abcbook-lastupdated 1665324379786
% abcbook-soundfonts 
% abcbook-repeats 1
% NFF Book 2007

